assets/icons/svg/atlassian.svg

<?xml version="1.0" encoding="UTF-8" standalone="no"?>
<svg
   version="1.2"
   viewBox="0 0 0.64483627 0.64537267"
   width="32"
   height="32.026619"
   id="svg2"
   sodipodi:docname="atlassian.svg"
   inkscape:version="1.4 (e7c3feb1, 2024-10-09)"
   xmlns:inkscape="http://www.inkscape.org/namespaces/inkscape"
   xmlns:sodipodi="http://sodipodi.sourceforge.net/DTD/sodipodi-0.dtd"
   xmlns="http://www.w3.org/2000/svg"
   xmlns:svg="http://www.w3.org/2000/svg"
   xmlns:rdf="http://www.w3.org/1999/02/22-rdf-syntax-ns#"
   xmlns:cc="http://creativecommons.org/ns#"
   xmlns:dc="http://purl.org/dc/elements/1.1/">
  <sodipodi:namedview
     id="namedview2"
     pagecolor="#ffffff"
     bordercolor="#000000"
     borderopacity="0.25"
     inkscape:showpageshadow="2"
     inkscape:pageopacity="0.0"
     inkscape:pagecheckerboard="0"
     inkscape:deskcolor="#d1d1d1"
     inkscape:zoom="4.2377866"
     inkscape:cx="71.145631"
     inkscape:cy="87.899661"
     inkscape:window-width="1800"
     inkscape:window-height="1126"
     inkscape:window-x="0"
     inkscape:window-y="43"
     inkscape:window-maximized="0"
     inkscape:current-layer="svg2" />
  <title
     id="title1">Atlassian-horizontal-blue-rgb-svg</title>
  <defs
     id="defs2">
    <linearGradient
       id="grd1"
       gradientUnits="userSpaceOnUse"
       x1="683.50098"
       y1="852.85602"
       x2="272.73001"
       y2="1564.343">
      <stop
         offset="0"
         stop-color="#0052cc"
         id="stop1" />
      <stop
         offset="0.923"
         stop-color="#2684ff"
         id="stop2" />
    </linearGradient>
  </defs>
  <style
     id="style2">
		tspan { white-space:pre }
		.shp0 { fill: url(#grd1) } 
		.shp1 { fill: #2684ff } 
	</style>
  <g
     id="Layer_2"
     transform="matrix(4.0673326e-4,0,0,4.0673326e-4,1.8539179e-5,2.0454523e-5)">
    <g
       id="Blue">
      <path
         id="Layer"
         class="shp0"
         d="m 470.2,732.75 c -4.71,-6.17 -10.93,-11.02 -18.06,-14.08 -7.13,-3.06 -14.93,-4.23 -22.64,-3.39 -7.71,0.84 -15.08,3.66 -21.38,8.18 -6.31,4.52 -11.35,10.6 -14.62,17.64 L 4.86,1519.33 c -3.54,7.09 -5.21,14.97 -4.86,22.89 0.36,7.93 2.73,15.63 6.89,22.37 4.16,6.75 9.98,12.31 16.89,16.18 6.92,3.86 14.71,5.88 22.62,5.89 h 541.16 c 4.31,0.1 8.62,-0.43 12.78,-1.56 4.16,-1.13 8.14,-2.86 11.8,-5.13 3.67,-2.27 6.99,-5.06 9.86,-8.28 2.88,-3.23 5.27,-6.85 7.11,-10.75 C 745.84,1319.35 675.09,952.01 470.2,732.75 Z"
         style="fill:url(#grd1)" />
      <path
         id="path2"
         class="shp1"
         d="m 755.24,24.92 c -48.21,74.3 -86.62,154.54 -114.26,238.72 -27.64,84.19 -44.28,171.6 -49.5,260.06 -5.22,88.46 1.01,177.23 18.55,264.09 17.54,86.85 46.24,171.07 85.38,250.55 l 260.89,522.6 c 1.92,3.84 4.37,7.4 7.26,10.58 2.9,3.17 6.22,5.93 9.87,8.19 3.65,2.26 7.6,4 11.72,5.17 4.13,1.18 8.4,1.78 12.7,1.78 h 541.06 c 7.92,-0.01 15.7,-2.03 22.62,-5.89 6.91,-3.87 12.73,-9.43 16.89,-16.18 4.16,-6.74 6.53,-14.44 6.89,-22.37 0.36,-7.92 -1.32,-15.8 -4.86,-22.89 C 1576.91,1512.24 852.54,61.1 834.25,24.62 830.63,17.2 825,10.95 817.99,6.58 c -7,-4.36 -15.09,-6.66 -23.34,-6.63 -8.24,0.03 -16.32,2.39 -23.29,6.81 -6.97,4.41 -12.56,10.71 -16.12,18.16 z" />
    </g>
  </g>
  <metadata
     id="metadata2">
    <rdf:RDF>
      <cc:Work
         rdf:about="">
        <dc:title>Atlassian-horizontal-blue-rgb-svg</dc:title>
      </cc:Work>
    </rdf:RDF>
  </metadata>
</svg>

<svg version="1.2" baseProfile="tiny-ps" xmlns="http://www.w3.org/2000/svg" viewBox="0 0 1588 1588" width="1588" height="1588">
	<title>Atlassian-horizontal-blue-rgb-svg</title>
	<defs>
		<linearGradient id="grd1" gradientUnits="userSpaceOnUse"  x1="683.501" y1="852.856" x2="272.73" y2="1564.343">
			<stop offset="0" stop-color="#0052cc"  />
			<stop offset="0.923" stop-color="#2684ff"  />
		</linearGradient>
	</defs>
	<style>
		tspan { white-space:pre }
		.shp0 { fill: url(#grd1) } 
		.shp1 { fill: #2684ff } 
	</style>
	<g id="Layer_2">
		<g id="Blue">
			<path id="Layer" class="shp0" d="M470.2 732.75C465.49 726.58 459.27 721.73 452.14 718.67C445.01 715.61 437.21 714.44 429.5 715.28C421.79 716.12 414.42 718.94 408.12 723.46C401.81 727.98 396.77 734.06 393.5 741.1L4.86 1519.33C1.32 1526.42 -0.35 1534.3 0 1542.22C0.36 1550.15 2.73 1557.85 6.89 1564.59C11.05 1571.34 16.87 1576.9 23.78 1580.77C30.7 1584.63 38.49 1586.65 46.4 1586.66L587.56 1586.66C591.87 1586.76 596.18 1586.23 600.34 1585.1C604.5 1583.97 608.48 1582.24 612.14 1579.97C615.81 1577.7 619.13 1574.91 622 1571.69C624.88 1568.46 627.27 1564.84 629.11 1560.94C745.84 1319.35 675.09 952.01 470.2 732.75Z" />
			<path id="Layer" class="shp1" d="M755.24 24.92C707.03 99.22 668.62 179.46 640.98 263.64C613.34 347.83 596.7 435.24 591.48 523.7C586.26 612.16 592.49 700.93 610.03 787.79C627.57 874.64 656.27 958.86 695.41 1038.34L956.3 1560.94C958.22 1564.78 960.67 1568.34 963.56 1571.52C966.46 1574.69 969.78 1577.45 973.43 1579.71C977.08 1581.97 981.03 1583.71 985.15 1584.88C989.28 1586.06 993.55 1586.66 997.85 1586.66L1538.91 1586.66C1546.83 1586.65 1554.61 1584.63 1561.53 1580.77C1568.44 1576.9 1574.26 1571.34 1578.42 1564.59C1582.58 1557.85 1584.95 1550.15 1585.31 1542.22C1585.67 1534.3 1583.99 1526.42 1580.45 1519.33C1576.91 1512.24 852.54 61.1 834.25 24.62C830.63 17.2 825 10.95 817.99 6.58C810.99 2.22 802.9 -0.08 794.65 -0.05C786.41 -0.02 778.33 2.34 771.36 6.76C764.39 11.17 758.8 17.47 755.24 24.92L755.24 24.92Z" />
		</g>
	</g>
</svg>
